Catalina-dark/actions/22/kdenlive-add-color-clip.svg

<svg viewBox="0 0 22 22" xmlns="http://www.w3.org/2000/svg">
<defs>
<style id="current-color-scheme" type="text/css">.ColorScheme-Text {
        color:#dedede
      }</style>
</defs>
<path class="ColorScheme-Text" d="m3.8887 3c-0.49244 0-0.88867 0.35758-0.88867 0.80078v14.398c0 0.4432 0.39623 0.80078 0.88867 0.80078h14.223c0.49244 0 0.88867-0.35758 0.88867-0.80078v-14.398c0-0.4432-0.39623-0.80078-0.88867-0.80078h-14.223zm7.1113 3c0.0797 0 0.15778 0.0401 0.20313 0.11914l2.7461 4.7871c0.9343 1.6294 0.37159 3.7083-1.2578 4.6426-1.6294 0.9343-3.7083 0.37158-4.6426-1.2578-0.62151-1.0839-0.57695-2.3725 0-3.3848l2.7461-4.7871c0.0453-0.0791 0.12538-0.11914 0.20508-0.11914z" fill="currentColor"/>
</svg>

<svg xmlns="http://www.w3.org/2000/svg" viewBox="0 0 22 22">
  <defs id="defs3051">
    <style type="text/css" id="current-color-scheme">
      .ColorScheme-Text {
        color:#f2f2f2
      }
      </style>
  </defs>
 <path 
     style="fill:currentColor;fill-opacity:1;stroke:none"      
	 class="ColorScheme-Text"
        d="M 3.88867,3 C 3.39623,3 3,3.35758 3,3.80078 L 3,18.19922 C 3,18.64242 3.39623,19 3.88867,19 l 14.22266,0 C 18.60377,19 19,18.64242 19,18.19922 L 19,3.80078 C 19,3.35758 18.60377,3 18.11133,3 L 3.88867,3 Z M 11,6 c 0.0797,0 0.15778,0.0401 0.20313,0.11914 l 2.74609,4.78711 c 0.9343,1.62942 0.37159,3.70829 -1.25781,4.64258 -1.62941,0.9343 -3.70829,0.37158 -4.64258,-1.25781 -0.62151,-1.0839 -0.57695,-2.37247 0,-3.38477 L 10.79492,6.11914 C 10.84022,6.04004 10.9203,6 11,6 Z"
     />
</svg>
